X:1
T:Harrison Town
M:4/4
L:1/4
K:G
 D| D D F G| A A A F| A A c3/2 B/2| A3| d| d d d3/2 A/2| c3/2- B/2 A3/2 G/2|\
 A G c B| A3| G| A A A A| d/2d/2 d d G| A A c3/2 B/2| A3| F| D D D3/2 F/2|\
 A A A3/2 F/2| E E D3/2 C/2| D3||
